X:27
T:Major Graham
R:strathspey
C:Niel Gow (1727-1807), Scotland
H:Also played in D
Z:id:hn-strathspey-27
M:C
L:1/8
K:G
GE | D>E G>G G2 g>e | d<B A>G A2 A>B | D>E G>G G2 g>e | d<B A>B G2 :|
(3def | g>a g>f e>d e>g | d<B A>G A2 (3def | g>a g>f e>d e<g | d<B A>B G2 d2 |
g>a g>f e>d e>g | d<B A>G A2 A>B | D>E G<G G2 g>e | d<B A>B G2 ||

